X: 21
T:Lucy Campbell's Hornpipe (#326)
M:2/4
L:1/16
S:Rice-Walsh manuscript
R:Hornpipe
K:D
FG|A3B A2F2|Adcd BAGF|A2d2 cdef|e2E2 E2FG|
A3B A2F2|d3e f2e2|fdcd BAGF|A2D2 D2:|
|:fe|d2B2 A2F2|d2e2 f2e2|d2B2 Adfa|g2e2 egfe|
d2B2 A2F2|d2e2 f2e2|d2A2 BAGF|A2D2 D2:|
|:FG|A2d2 gfed|a2d2 gfed|A2d2 gfga|b2e2 e2 FG|
A2d2 gfed|a2d2 gfed|gdBG FAde|f2d2 d2:|
|:fe|d2f2 A2f2|d2f2 A2f2|d2f2 FAdf|e2E2 E2 fe|
dff2 Aff2|dff2 Aff2|gfga geag|f2d2 d2:|
|:fg|a3b agfe|d2e2 f2e2|d2B2 Bdfa|g2e2 egfg|
fgab agfe|dcde f2e2|fdcd BAGF|A2D2 D2:|
|:dB|ADFG BAGF|ADFG BAGF|ADFG BAGF|B2E2 E2dB|
BAGF GFGA|BABc dede|fdcd BAGF|A2D2 D2:||

